icons/svg/seamark_big/landmark_windmotor.svg

<?xml version="1.0" encoding="UTF-8" standalone="no"?>
<svg
   xmlns:dc="http://purl.org/dc/elements/1.1/"
   xmlns:cc="http://creativecommons.org/ns#"
   xmlns:rdf="http://www.w3.org/1999/02/22-rdf-syntax-ns#"
   xmlns:svg="http://www.w3.org/2000/svg"
   xmlns="http://www.w3.org/2000/svg"
   xmlns:sodipodi="http://sodipodi.sourceforge.net/DTD/sodipodi-0.dtd"
   xmlns:inkscape="http://www.inkscape.org/namespaces/inkscape"
   width="1060"
   height="1060"
   id="svg2"
   version="1.1"
   inkscape:version="0.48.4 r9939"
   sodipodi:docname="landmark_windmotor.svg">
  <defs
     id="defs13">
    <inkscape:path-effect
       effect="gears"
       id="path-effect3774"
       is_visible="true"
       teeth="6"
       phi="-1.2" />
    <inkscape:path-effect
       effect="bend_path"
       id="path-effect3772"
       is_visible="false"
       bendpath="m 95.790098,316.51174 c 144.429032,-206.42506 223.313032,-11.7428 339.548092,0"
       prop_scale="1.19"
       scale_y_rel="false"
       vertical="false"
       bendpath-nodetypes="cc" />
  </defs>
  <sodipodi:namedview
     pagecolor="#ffffff"
     bordercolor="#666666"
     borderopacity="1"
     objecttolerance="10"
     gridtolerance="10"
     guidetolerance="10"
     inkscape:pageopacity="0"
     inkscape:pageshadow="2"
     inkscape:window-width="1920"
     inkscape:window-height="1004"
     id="namedview11"
     showgrid="false"
     inkscape:zoom="0.40689655"
     inkscape:cx="575.69576"
     inkscape:cy="669.93343"
     inkscape:window-x="1680"
     inkscape:window-y="0"
     inkscape:window-maximized="1"
     inkscape:current-layer="svg2"
     inkscape:snap-object-midpoints="true"
     inkscape:snap-center="true" />
  <metadata
     id="metadata2975">image/svg+xmlen<rdf:RDF>
  <cc:Work
     rdf:about="">
    <dc:format>image/svg+xml</dc:format>
    <dc:type
       rdf:resource="http://purl.org/dc/dcmitype/StillImage" />
    <dc:title></dc:title>
  </cc:Work>
</rdf:RDF>
</metadata>
  <path
     sodipodi:type="inkscape:offset"
     inkscape:radius="26.08143"
     inkscape:original="M 456.28125 233.0625 C 455.93336 233.06153 455.59784 233.07275 455.25 233.09375 C 453.39485 233.20621 451.55341 233.6438 449.71875 234.46875 C 442.37185 237.77861 439.53059 245.47907 438.53125 253.6875 C 437.53191 261.89593 438.19731 271.85967 440.125 283.5 C 443.8858 306.2095 452.60522 335.25537 465.40625 366.78125 C 446.58892 395.08716 432.22487 421.80115 424 443.28125 C 419.78276 454.29499 417.1329 463.88583 416.46875 472.125 C 415.8046 480.36417 417.05498 488.50945 423.59375 493.21875 C 430.12208 497.92516 438.22046 496.54231 445.8125 493.3125 C 453.40454 490.08279 461.62436 484.53197 470.71875 477.0625 C 475.18037 473.39806 479.82832 469.25221 484.625 464.6875 L 461.1875 723.84375 L 415.78125 723.84375 L 415.78125 746.90625 L 463.28125 746.90625 C 468.4693 767.60534 487.27727 783.03125 509.53125 783.03125 C 531.78523 783.03125 550.62059 767.60534 555.8125 746.90625 L 603.28125 746.90625 L 603.28125 723.84375 L 560.09375 723.84375 L 537.03125 413.875 C 568.24293 415.48978 596.07733 414.44916 617.28125 411.0625 C 628.92533 409.20272 638.5669 406.70453 646.03125 403.15625 C 653.4956 399.60797 659.91088 394.45277 660.71875 386.4375 C 661.52737 378.42065 656.26407 372.12186 649.65625 367.15625 C 643.04843 362.19064 634.10418 357.80397 623.0625 353.65625 C 601.5189 345.56358 572.00402 338.58543 538.3125 333.90625 C 523.18746 303.39922 507.20339 277.58598 492.6875 259.71875 C 485.26566 250.5834 478.29597 243.49364 471.5 238.8125 C 466.72158 235.52107 461.49957 233.077 456.28125 233.0625 z M 455.9375 247.75 C 456.6569 247.6834 458.97559 247.92101 463.21875 250.84375 C 468.10522 254.20961 474.48722 260.42826 481.375 268.90625 C 492.56183 282.67583 505.22113 302.52607 517.65625 325.84375 C 515.58751 325.55696 513.4868 325.375 511.34375 325.375 C 495.31938 325.375 481.37692 333.78186 473.1875 346.28125 C 463.92065 321.4111 457.41058 298.6692 454.5 281.09375 C 452.71064 270.28873 452.28084 261.37581 453 255.46875 C 453.71916 249.56169 455.43985 247.9069 455.71875 247.78125 C 455.75685 247.76585 455.83473 247.7595 455.9375 247.75 z M 511.34375 339.96875 C 517.81973 339.96875 523.74871 341.91093 528.75 345.25 A 7.2957296 7.2957296 0 0 0 529.375 345.625 A 7.2957296 7.2957296 0 0 0 530.34375 346.5625 C 537.87366 352.34833 542.75 361.19826 542.75 371.375 C 542.75 383.82826 535.5019 394.37202 525.03125 399.5 A 7.2957296 7.2957296 0 0 0 523.84375 400.21875 A 7.2957296 7.2957296 0 0 0 523.15625 400.4375 C 519.4531 401.93944 515.51451 402.8125 511.34375 402.8125 C 493.89766 402.8125 479.90625 388.82109 479.90625 371.375 C 479.90625 371.51327 480.03585 370.88237 480.15625 369.21875 A 7.2957296 7.2957296 0 0 0 480.15625 368.21875 A 7.2957296 7.2957296 0 0 0 480.34375 367.34375 C 482.35795 351.87875 495.31131 339.96875 511.34375 339.96875 z M 552.46875 350.9375 C 578.51143 355.34179 601.32528 361.07226 617.9375 367.3125 C 628.18727 371.16274 636.15137 375.23933 640.90625 378.8125 C 645.66113 382.38567 646.21754 384.70214 646.1875 385 C 646.1567 385.30542 645.15062 387.41635 639.78125 389.96875 C 634.41188 392.52115 625.80801 394.93001 615 396.65625 C 597.44207 399.46058 573.87544 400.52178 547.40625 399.625 C 553.56468 391.83716 557.34375 382.0674 557.34375 371.375 C 557.34375 364.01749 555.5722 357.08432 552.46875 350.9375 z M 511.34375 355.25 C 503.00003 355.25 496.125 362.12503 496.125 370.46875 C 496.125 378.81247 503.00003 385.6875 511.34375 385.6875 C 519.68747 385.6875 526.53125 378.81247 526.53125 370.46875 C 526.53125 362.12503 519.68747 355.25 511.34375 355.25 z M 511.34375 365.40625 C 514.19768 365.40625 516.40625 367.61482 516.40625 370.46875 C 516.40625 373.32268 514.19768 375.53125 511.34375 375.53125 C 508.48982 375.53125 506.25 373.32268 506.25 370.46875 C 506.25 367.61482 508.48982 365.40625 511.34375 365.40625 z M 468.75 388.6875 C 475.27727 404.63371 490.56278 415.97848 508.53125 417.09375 C 491.64029 437.52789 475.21371 454.49215 461.46875 465.78125 C 453.02844 472.7135 445.55053 477.55365 440.09375 479.875 C 434.63697 482.19635 432.36884 481.55079 432.125 481.375 C 431.87663 481.19612 430.52223 479.23955 431 473.3125 C 431.47777 467.38545 433.71024 458.72379 437.625 448.5 C 443.96588 431.94016 454.79576 411.08397 468.75 388.6875 z M 522.125 423.6875 L 542.75 701.28125 C 534.14586 692.90608 522.41635 687.71875 509.53125 687.71875 C 498.01661 687.71875 487.41642 691.83141 479.15625 698.6875 L 501.71875 449.28125 A 7.8087809 7.8087809 0 0 0 501.65625 447.34375 C 508.35657 440.0832 515.21237 432.17281 522.125 423.6875 z M 509.53125 704.84375 C 526.4858 704.84375 540.0625 718.42045 540.0625 735.375 C 540.0625 752.32955 526.4858 765.875 509.53125 765.875 C 492.5767 765.875 479.03125 752.32955 479.03125 735.375 C 479.03125 718.42045 492.5767 704.84375 509.53125 704.84375 z "
     style="font-size:medium;font-style:normal;font-variant:normal;font-weight:normal;font-stretch:normal;text-indent:0;text-align:start;text-decoration:none;line-height:normal;letter-spacing:normal;word-spacing:normal;text-transform:none;direction:ltr;block-progression:tb;writing-mode:lr-tb;text-anchor:start;baseline-shift:baseline;opacity:0.372;color:#000000;fill:#e4e4e4;fill-opacity:1;fill-rule:nonzero;stroke:#a35151;stroke-width:0;stroke-linecap:round;stroke-linejoin:miter;stroke-miterlimit:4;stroke-opacity:1;stroke-dasharray:none;stroke-dashoffset:0;marker:none;visibility:visible;display:inline;overflow:visible;enable-background:accumulate;font-family:Sans;-inkscape-font-specification:Sans"
     id="path3876"
     d="m 456.34375,206.96875 c -0.95542,-0.003 -1.85917,0.0456 -2.65625,0.0937 a 26.084039,26.084039 0 0 0 -0.0312,0 c -4.8935,0.29665 -9.9833,1.53787 -14.625,3.625 a 26.084039,26.084039 0 0 0 -0.0312,0 c -18.86349,8.49821 -24.86417,27.69067 -26.34375,39.84375 -1.4732,12.10061 -0.41157,24.16612 1.75,37.21875 3.67782,22.20842 11.33145,48.16353 21.96875,76.09375 -15.98419,25.21328 -28.67358,49.11419 -36.71875,70.125 -4.72068,12.32854 -8.20718,23.901 -9.1875,36.0625 -0.98541,12.22464 1.04288,32.22106 17.875,44.34375 15.76655,11.36644 33.77945,8.14726 45.28125,3.75 l -16.25,179.625 -21.59375,0 a 26.084039,26.084039 0 0 0 -26.09375,26.09375 l 0,23.0625 A 26.084039,26.084039 0 0 0 415.78125,773 l 30.4375,0 c 12.92603,21.63073 36.53509,36.125 63.3125,36.125 26.785,0 50.40993,-14.48164 63.34375,-36.125 l 30.40625,0 A 26.084039,26.084039 0 0 0 629.375,746.90625 l 0,-23.0625 A 26.084039,26.084039 0 0 0 603.28125,697.75 l -19,0 -19.125,-257.125 c 20.78799,-3.2e-4 39.85099,-1.19327 56.25,-3.8125 13.02193,-2.07985 24.7701,-4.84459 35.8125,-10.09375 11.07767,-5.26592 27.35995,-17.04386 29.4375,-37.65625 2.07959,-20.61751 -11.58525,-35.41673 -21.34375,-42.75 -9.74661,-7.32433 -20.72555,-12.41648 -33.09375,-17.0625 -21.06419,-7.91258 -47.34127,-14.27518 -76.84375,-19.03125 -13.8701,-26.50643 -28.23454,-49.45545 -42.4375,-66.9375 -8.29646,-10.21189 -16.58931,-19.00328 -26.65625,-25.9375 -7.12158,-4.90542 -16.6239,-10.33801 -29.9375,-10.375 z m -7.90625,65.34375 c 0.12371,0.0852 0.70343,0.65075 0.90625,0.8125 -1.46577,-0.57559 -1.48583,-1.21172 -0.90625,-0.8125 z m 62.90625,93.75 c 1.03201,0 1.70378,0.21125 2.4375,0.625 -0.0118,-0.005 0.26424,0.25527 0.21875,0.21875 a 26.084039,26.084039 0 0 0 0.4375,0.34375 c 1.65478,1.2715 2.21875,2.2798 2.21875,4.125 0,2.33324 -1.03585,3.67965 -3.09375,4.6875 l 0,0.0312 c 0.0409,-0.0162 -0.3461,0.19395 -0.375,0.21875 -0.84834,0.32473 -1.35404,0.40625 -1.84375,0.40625 -3.29965,0 -5.0491,-1.6925 -5.25,-4.8125 0.0232,-0.27802 0.0407,-0.51068 0.0625,-0.8125 A 26.084039,26.084039 0 0 0 506.1875,371 c -0.002,0.0235 0.002,-0.13804 0,-0.125 a 26.084039,26.084039 0 0 0 0.0312,-0.15625 c 0.38613,-2.96471 2.00928,-4.65625 5.125,-4.65625 z m 0.0625,265.40625 2.28125,30.375 c -1.38388,-0.079 -2.75532,-0.21875 -4.15625,-0.21875 -0.28338,0 -0.56098,0.028 -0.84375,0.0312 l 2.71875,-30.1875 z m -1.875,99.46875 c 3.03106,0 4.4375,1.40644 4.4375,4.4375 0,3.03106 -1.37439,4.40625 -4.4375,4.40625 -3.06311,0 -4.40625,-1.34314 -4.40625,-4.40625 0,-3.06311 1.37519,-4.4375 4.40625,-4.4375 z" />
  <path
     sodipodi:type="arc"
     style="color:#000000;fill:none;stroke:#000000;stroke-width:30.33652288;stroke-linecap:butt;stroke-linejoin:miter;stroke-miterlimit:4;stroke-opacity:1;stroke-dasharray:none;stroke-dashoffset:0;marker:none;visibility:visible;display:inline;overflow:visible;enable-background:accumulate"
     id="path2985"
     sodipodi:cx="510.26483"
     sodipodi:cy="737.74365"
     sodipodi:rx="69.120766"
     sodipodi:ry="69.120766"
     d="m 579.3856,737.74365 a 69.120766,69.120766 0 1 1 -138.24153,0 69.120766,69.120766 0 1 1 138.24153,0 z"
     transform="matrix(0.56558888,0,0,0.56558888,221.05031,318.17685)" />
  <path
     style="font-size:medium;font-style:normal;font-variant:normal;font-weight:normal;font-stretch:normal;text-indent:0;text-align:start;text-decoration:none;line-height:normal;letter-spacing:normal;word-spacing:normal;text-transform:none;direction:ltr;block-progression:tb;writing-mode:lr-tb;text-anchor:start;baseline-shift:baseline;color:#000000;fill:#000000;fill-opacity:1;stroke:none;stroke-width:30.00000191;marker:none;visibility:visible;display:inline;overflow:visible;enable-background:accumulate;font-family:Sans;-inkscape-font-specification:Sans"
     d="m 415.88872,723.91311 0,23.04878 59.24176,0 0,-23.04878 z m 128.26205,0 0,23.04878 59.24176,0 0,-23.04878 z"
     id="path3754"
     inkscape:connector-curvature="0"
     sodipodi:nodetypes="cccccccccc" />
  <rect
     style="fill:none"
     y="209.23727"
     x="249.02544"
     width="487.45749"
     height="487.45749"
     id="rect3" />
  <rect
     style="fill:none"
     y="209.23727"
     x="249.02544"
     width="487.45749"
     height="487.45749"
     id="rect3-8" />
  <path
     style="fill:none;stroke:#000000;stroke-width:17.316;stroke-linecap:round;stroke-linejoin:round;stroke-miterlimit:10;stroke-dasharray:none"
     d="M 552.50865,725.83546 528.94369,408.93497"
     id="line3"
     inkscape:connector-curvature="0"
     sodipodi:nodetypes="cc" />
  <path
     style="fill:none;stroke:#000000;stroke-width:17.316;stroke-linecap:round;stroke-linejoin:round;stroke-miterlimit:10;stroke-dasharray:none"
     d="M 494.05336,448.65632 468.70012,728.90749"
     id="line5"
     inkscape:connector-curvature="0"
     sodipodi:nodetypes="cc" />
  <circle
     transform="matrix(3.3791908,0,0,3.3791908,426.95555,292.80977)"
     style="fill:none;stroke:#000000;stroke-width:3.00604512;stroke-linecap:round;stroke-linejoin:round;stroke-miterlimit:10;stroke-dasharray:none"
     sodipodi:ry="3"
     sodipodi:rx="3"
     sodipodi:cy="23"
     sodipodi:cx="25"
     stroke-miterlimit="10"
     cx="25"
     cy="23"
     r="3"
     id="circle7" />
  <g
     transform="matrix(5.9904196,0,0,5.9904196,361.67482,232.75151)"
     id="g9"
     style="stroke:#000000;stroke-opacity:1;stroke-width:2.4355556;stroke-miterlimit:4;stroke-dasharray:none">
    <path
       style="fill:none;stroke:#000000;stroke-width:2.4355556;stroke-linecap:round;stroke-linejoin:round;stroke-miterlimit:4;stroke-opacity:1;stroke-dasharray:none"
       inkscape:connector-curvature="0"
       stroke-miterlimit="10"
       d="m 25,16.692 c 1.327,0 2.558,0.402 3.584,1.087 C 23.496,7.418 17.756,0.266 15.214,1.409 12.668,2.556 14.224,11.619 18.622,22.321 19.035,19.15 21.716,16.692 25,16.692 z"
       id="path11" />
    <path
       style="fill:none;stroke:#000000;stroke-width:2.4355556;stroke-linecap:round;stroke-linejoin:round;stroke-miterlimit:4;stroke-opacity:1;stroke-dasharray:none"
       inkscape:connector-curvature="0"
       stroke-miterlimit="10"
       d="m 28.918,18.046 c 1.537,1.181 2.544,3.018 2.544,5.108 0,2.553 -1.491,4.736 -3.637,5.787 11.538,0.777 20.621,-0.617 20.901,-3.395 0.28,-2.776 -8.346,-5.957 -19.808,-7.5 z"
       id="path13" />
    <path
       style="fill:none;stroke:#000000;stroke-width:2.4355556;stroke-linecap:round;stroke-linejoin:round;stroke-miterlimit:4;stroke-opacity:1;stroke-dasharray:none"
       inkscape:connector-curvature="0"
       stroke-miterlimit="10"
       d="m 25,29.615 c -3.57,0 -6.462,-2.892 -6.462,-6.462 0,-0.155 0.034,-0.297 0.045,-0.449 -6.442,9.602 -9.784,18.166 -7.518,19.798 2.261,1.63 9.311,-4.235 16.367,-13.368 -0.752,0.305 -1.57,0.481 -2.432,0.481 z"
       id="path15" />
  </g>
</svg>

<svg width="1060" height="1060" viewBox="0 0 1060 1060" fill="none" xmlns="http://www.w3.org/2000/svg">
<path opacity="0.372" d="M456.344 206.969C455.388 206.966 454.484 207.014 453.687 207.062C453.677 207.062 453.667 207.062 453.656 207.062C448.763 207.359 443.673 208.6 439.031 210.687C439.021 210.687 439.01 210.687 439 210.687C420.137 219.186 414.136 238.378 412.656 250.531C411.183 262.632 412.245 274.697 414.406 287.75C418.084 309.958 425.738 335.913 436.375 363.844C420.391 389.057 407.701 412.958 399.656 433.969C394.936 446.297 391.449 457.87 390.469 470.031C389.483 482.256 391.512 502.252 408.344 514.375C424.11 525.741 442.123 522.522 453.625 518.125L437.375 697.75H415.781C412.354 697.749 408.961 698.423 405.794 699.734C402.628 701.044 399.751 702.966 397.327 705.39C394.904 707.813 392.982 710.69 391.671 713.856C390.36 717.023 389.686 720.417 389.688 723.844V746.906C389.686 750.333 390.36 753.727 391.671 756.893C392.982 760.06 394.904 762.937 397.327 765.36C399.751 767.783 402.628 769.705 405.794 771.016C408.96 772.327 412.354 773.001 415.781 773H446.219C459.145 794.631 482.754 809.125 509.531 809.125C536.316 809.125 559.941 794.643 572.875 773H603.281C606.708 773.001 610.102 772.327 613.268 771.016C616.435 769.705 619.312 767.783 621.735 765.36C624.158 762.937 626.08 760.06 627.391 756.893C628.702 753.727 629.376 750.333 629.375 746.906V723.844C629.376 720.417 628.702 717.023 627.391 713.856C626.08 710.69 624.158 707.813 621.735 705.39C619.312 702.966 616.435 701.044 613.268 699.734C610.102 698.423 606.708 697.749 603.281 697.75H584.281L565.156 440.625C585.944 440.625 605.007 439.432 621.406 436.812C634.428 434.733 646.176 431.968 657.219 426.719C668.296 421.453 684.579 409.675 686.656 389.062C688.736 368.445 675.071 353.646 665.312 346.312C655.566 338.988 644.587 333.896 632.219 329.25C611.154 321.337 584.877 314.975 555.375 310.219C541.505 283.712 527.14 260.763 512.937 243.281C504.641 233.069 496.348 224.278 486.281 217.344C479.16 212.438 469.657 207.006 456.344 206.969ZM448.437 272.312C448.561 272.398 449.141 272.963 449.344 273.125C447.878 272.549 447.858 271.913 448.437 272.312ZM511.344 366.062C512.376 366.062 513.047 366.274 513.781 366.687C513.769 366.682 514.045 366.943 514 366.906C514.145 367.022 514.29 367.137 514.437 367.25C516.092 368.521 516.656 369.53 516.656 371.375C516.656 373.708 515.62 375.055 513.562 376.062V376.094C513.603 376.077 513.216 376.288 513.187 376.312C512.339 376.637 511.833 376.719 511.344 376.719C508.044 376.719 506.295 375.026 506.094 371.906C506.117 371.628 506.134 371.395 506.156 371.094C506.167 371.062 506.177 371.031 506.187 371C506.185 371.023 506.189 370.862 506.187 370.875C506.198 370.823 506.208 370.771 506.219 370.719C506.605 367.754 508.228 366.062 511.344 366.062H511.344ZM511.406 631.469L513.687 661.844C512.304 661.765 510.932 661.625 509.531 661.625C509.248 661.625 508.97 661.653 508.687 661.656L511.406 631.469V631.469ZM509.531 730.937C512.562 730.937 513.969 732.344 513.969 735.375C513.969 738.406 512.594 739.781 509.531 739.781C506.468 739.781 505.125 738.438 505.125 735.375C505.125 732.312 506.5 730.937 509.531 730.937Z" fill="#E4E4E4"/>
<path d="M548.745 735.437C548.745 740.571 547.735 745.655 545.771 750.399C543.806 755.143 540.927 759.453 537.297 763.084C533.666 766.715 529.356 769.596 524.613 771.561C519.869 773.526 514.785 774.537 509.651 774.537C504.516 774.537 499.432 773.526 494.688 771.561C489.945 769.596 485.635 766.715 482.005 763.084C478.374 759.453 475.495 755.143 473.531 750.399C471.566 745.655 470.556 740.571 470.557 735.437C470.556 730.302 471.566 725.218 473.531 720.474C475.495 715.73 478.374 711.42 482.005 707.789C485.635 704.158 489.945 701.277 494.688 699.312C499.432 697.347 504.516 696.336 509.651 696.336C514.785 696.336 519.869 697.347 524.613 699.312C529.356 701.277 533.666 704.158 537.297 707.789C540.927 711.42 543.806 715.73 545.771 720.474C547.735 725.218 548.745 730.302 548.745 735.437Z" stroke="black" stroke-width="17.158"/>
<path d="M415.889 723.913V746.962H475.13V723.913H415.889ZM544.151 723.913V746.962H603.392V723.913H544.151Z" fill="black"/>
<path d="M552.509 725.836L528.944 408.935" stroke="black" stroke-width="17.316" stroke-miterlimit="10" stroke-linecap="round" stroke-linejoin="round"/>
<path d="M494.053 448.656L468.7 728.907" stroke="black" stroke-width="17.316" stroke-miterlimit="10" stroke-linecap="round" stroke-linejoin="round"/>
<path d="M511.435 380.669C517.034 380.669 521.573 376.13 521.573 370.531C521.573 364.932 517.034 360.394 511.435 360.394C505.837 360.394 501.298 364.932 501.298 370.531C501.298 376.13 505.837 380.669 511.435 380.669Z" stroke="black" stroke-width="10.158" stroke-miterlimit="10" stroke-linecap="round" stroke-linejoin="round"/>
<path d="M511.435 332.744C519.384 332.744 526.759 335.152 532.905 339.255C502.426 277.188 468.041 234.345 452.813 241.192C437.561 248.063 446.882 302.354 473.228 366.464C475.702 347.468 491.763 332.744 511.435 332.744Z" stroke="black" stroke-width="14.59" stroke-miterlimit="10" stroke-linecap="round" stroke-linejoin="round"/>
<path d="M534.906 340.855C544.113 347.929 550.146 358.934 550.146 371.454C550.146 386.747 541.214 399.824 528.358 406.12C597.476 410.775 651.887 402.424 653.564 385.783C655.241 369.153 603.568 350.098 534.906 340.855Z" stroke="black" stroke-width="14.59" stroke-miterlimit="10" stroke-linecap="round" stroke-linejoin="round"/>
<path d="M511.435 410.158C490.049 410.158 472.725 392.834 472.725 371.448C472.725 370.519 472.929 369.669 472.995 368.758C434.404 426.278 414.384 477.58 427.959 487.356C441.503 497.121 483.736 461.987 526.004 407.276C521.499 409.104 516.599 410.158 511.435 410.158V410.158Z" stroke="black" stroke-width="14.59" stroke-miterlimit="10" stroke-linecap="round" stroke-linejoin="round"/>
</svg>
